src/assets/icons/hand-pointer.svg

<svg width="100%" height="100%" viewBox="0 0 144 190" fill="none" xmlns="http://www.w3.org/2000/svg">
<path d="M2.27576 42.2539L3.2253 32.4609L18.8928 7.43423L26.9639 1.99365L41.2071 5.258L61.6223 41.1658L64.9457 34.0931L73.9664 32.4609L83.4619 34.0931L92.4826 48.7826L95.3312 44.4302L108.15 41.1658L116.221 48.7826L121.918 59.6638L133.313 61.296L140.909 76.5296V107.541L134.263 140.728L140.909 154.33L136.162 168.475L120.019 181.533L97.2303 188.061L79.1889 185.885L68.2692 177.724L63.0467 161.403L37.4089 140.728L28.3883 125.495L24.5901 114.614V98.2919L26.9639 89.0429L35.0351 84.6904L38.8333 83.0583L35.0351 73.2652L31.7117 61.296L26.9639 49.8707L24.5901 53.1351H16.0442L7.97303 49.8707L2.27576 42.2539Z" fill="#F6F6F6"/>
<path d="M22.9296 1.48492C17.0424 4.96689 13.0543 9.86341 3.55887 25.2058C-2.32831 34.7813 -0.809035 45.6624 7.35706 52.6264C9.3511 54.3673 11.3451 54.9114 15.808 54.9114C19.0365 54.9114 22.8346 54.585 24.164 54.1497C26.6328 53.2792 26.8227 53.6057 31.5705 66.7719C34.2292 74.2799 36.4131 80.8085 36.4131 81.4614C36.4131 82.1143 35.1787 82.6583 33.6595 82.6583C30.431 82.6583 25.5883 86.902 23.5943 91.4721C20.4608 98.2184 23.1195 121.069 28.0571 130.427C33.5645 140.764 43.8196 151.21 56.3536 159.044C61.1963 162.091 62.0509 163.07 62.0509 165.682C62.0509 173.516 67.938 182.221 76.1041 186.356C93.7657 195.496 125.955 186.573 137.92 169.272C142.762 162.308 143.142 151.971 138.774 144.028L136.305 139.676L138.679 131.515C142.098 119.328 143.997 105.291 143.997 90.8192C144.092 75.4768 142.192 68.1864 136.495 61.8753C133.457 58.5022 132.697 58.1757 127.475 58.1757C124.246 58.1757 121.872 57.7405 121.872 56.9788C121.872 56.4348 120.733 53.2792 119.403 50.2325C114.751 39.4602 103.926 35.4341 96.7093 41.7452C94.8102 43.4862 93.196 44.5743 93.006 44.4655C87.4987 34.2372 81.3266 29.3407 74.1101 29.3407C69.7422 29.3407 64.4247 31.9522 62.5256 35.1077C61.766 36.4134 61.0064 37.1751 60.7215 36.8487C60.5316 36.6311 58.1577 31.2993 55.404 25.097C50.1815 13.1278 44.1045 4.53164 38.787 1.70254C34.8939 -0.473688 26.348 -0.5825 22.9296 1.48492ZM36.698 5.83738C42.1104 8.44886 46.5733 15.0864 53.505 30.32C61.4811 48.2739 62.2408 49.4708 64.3298 48.6003C65.6591 47.9475 65.7541 47.4034 64.8995 45.5536C63.3802 42.3981 65.3743 37.2839 68.9825 35.1077C72.9706 32.8226 79.2376 33.802 83.4156 37.3927C85.3147 39.1337 87.7835 43.0509 89.5877 47.2946C91.2019 51.2118 92.9111 54.3673 93.3859 54.3673C93.8606 54.3673 95.19 52.4087 96.2345 50.0149C98.4185 45.1184 100.507 43.4862 104.97 43.4862C111.712 43.4862 117.979 51.7559 118.074 60.6784C118.074 64.9221 120.258 66.3366 122.727 63.7251C127.475 58.8286 135.925 64.4868 138.489 74.2799C141.623 86.5756 139.629 113.996 134.216 132.276C130.323 145.334 127.285 150.666 120.923 155.127C114.371 159.697 100.318 164.049 89.018 164.92C77.9083 165.899 70.6917 163.505 58.2527 154.909C35.0838 138.914 29.3865 130.427 26.4429 107.141C25.1136 96.4774 29.1966 87.0108 35.0838 87.0108C38.0274 87.0108 38.2173 87.2284 38.882 92.0161C39.1668 94.8452 39.2618 99.9594 38.882 103.441C38.4072 109.317 38.5021 109.861 40.1164 109.861C44.5792 109.861 44.5792 94.0835 40.2113 79.2852C36.2232 66.119 30.3361 50.5589 27.2975 45.336C25.3984 41.9628 24.6388 41.4188 23.5943 42.3981C22.5498 43.3774 22.4548 44.2479 23.1195 45.6624C24.7337 49.0356 24.259 49.9061 20.081 50.5589C7.64192 52.6264 0.045556 40.0042 6.78733 28.579C12.9594 18.0243 20.5557 7.68718 23.4044 6.05501C27.2026 3.98759 32.615 3.87877 36.698 5.83738ZM138.014 156.541C138.109 169.272 122.157 181.024 99.8428 184.941C84.5551 187.553 71.8312 182.112 67.5582 171.122C66.5137 168.402 65.849 166.117 66.039 165.899C66.2289 165.682 68.8876 166.552 72.0211 167.749C76.9587 169.708 79.2376 169.925 88.6381 169.381C110.573 168.184 127.285 159.915 132.982 147.401L134.501 144.137L136.21 148.489C137.16 150.883 138.014 154.474 138.014 156.541Z" fill="#444444"/>
</svg>

<svg xmlns="http://www.w3.org/2000/svg" width="100%" height="100%" viewBox="0 0 144 190" fill="none"><path d="M2.276 42.254l.95-9.793L18.893 7.434l8.071-5.441 14.243 3.264 20.415 35.908 3.323-7.073 9.021-1.632 9.496 1.632 9.021 14.69 2.849-4.352 12.819-3.264 8.071 7.617 5.697 10.881 11.395 1.632 7.596 15.234v31.011l-6.646 33.187 6.646 13.602-4.747 14.145-16.143 13.058-22.789 6.528-18.041-2.176-10.92-8.161-5.222-16.321-25.638-20.675-9.021-15.233-3.798-10.881V98.292l2.374-9.249 8.071-4.353 3.798-1.632-3.798-9.793-3.323-11.969-4.748-11.425-2.374 3.264h-8.546l-8.071-3.264-5.697-7.617z" fill="#f6f6f6"/><path d="M22.93 1.485c-5.887 3.482-9.875 8.378-19.371 23.721-5.887 9.576-4.368 20.457 3.798 27.421 1.994 1.741 3.988 2.285 8.451 2.285 3.229 0 7.027-.326 8.356-.762 2.469-.87 2.659-.544 7.406 12.622 2.659 7.508 4.843 14.037 4.843 14.689s-1.234 1.197-2.754 1.197c-3.229 0-8.071 4.244-10.065 8.814-3.134 6.746-.475 29.597 4.463 38.955 5.507 10.337 15.763 20.783 28.297 28.617 4.843 3.047 5.697 4.026 5.697 6.638 0 7.834 5.887 16.539 14.053 20.674 17.662 9.14 49.851.217 61.816-17.084 4.842-6.964 5.222-17.301.854-25.244l-2.469-4.352 2.374-8.161c3.419-12.187 5.318-26.224 5.318-40.696.095-15.342-1.805-22.633-7.502-28.944-3.038-3.373-3.798-3.7-9.02-3.7-3.229 0-5.603-.435-5.603-1.197 0-.544-1.139-3.7-2.469-6.746-4.652-10.772-15.477-14.798-22.694-8.487-1.899 1.741-3.513 2.829-3.703 2.72-5.507-10.228-11.679-15.125-18.896-15.125-4.368 0-9.685 2.612-11.585 5.767-.76 1.306-1.519 2.067-1.804 1.741-.19-.218-2.564-5.549-5.317-11.752-5.223-11.969-11.3-20.565-16.617-23.394C34.894-.474 26.348-.582 22.93 1.485zm13.768 4.352c5.412 2.611 9.875 9.249 16.807 24.483 7.976 17.954 8.736 19.151 10.825 18.28 1.329-.653 1.424-1.197.57-3.047-1.519-3.156.475-8.27 4.083-10.446 3.988-2.285 10.255-1.306 14.433 2.285 1.899 1.741 4.368 5.658 6.172 9.902 1.614 3.917 3.323 7.073 3.798 7.073s1.804-1.959 2.849-4.352c2.184-4.896 4.273-6.529 8.736-6.529 6.742 0 13.009 8.27 13.104 17.192 0 4.244 2.184 5.658 4.653 3.047 4.748-4.896 13.198.762 15.762 10.555 3.134 12.296 1.14 39.716-4.273 57.996-3.893 13.058-6.931 18.39-13.293 22.851-6.552 4.57-20.605 8.922-31.905 9.793-11.11.979-18.326-1.415-30.765-10.011-23.169-15.995-28.866-24.482-31.81-47.768-1.329-10.664 2.754-20.13 8.641-20.13 2.944 0 3.134.218 3.798 5.005.285 2.829.38 7.943 0 11.425-.475 5.876-.38 6.42 1.234 6.42 4.463 0 4.463-15.778.095-30.576-3.988-13.166-9.875-28.726-12.914-33.949-1.899-3.373-2.659-3.917-3.703-2.938s-1.14 1.85-.475 3.264c1.614 3.373 1.14 4.244-3.038 4.897C7.642 52.626.046 40.004 6.787 28.579 12.959 18.024 20.556 7.687 23.404 6.055c3.798-2.067 9.211-2.176 13.294-.218zm101.316 150.704c.095 12.731-15.857 24.483-38.171 28.4-15.288 2.612-28.012-2.829-32.285-13.819-1.044-2.72-1.709-5.005-1.519-5.223s2.849.653 5.982 1.85c4.938 1.959 7.216 2.176 16.617 1.632 21.935-1.197 38.647-9.466 44.344-21.98l1.519-3.264 1.709 4.352c.95 2.394 1.804 5.985 1.804 8.052z" fill="#444"/></svg>
